libs/ui/packages/crypto-icons/src/svg/BURN.svg

<svg width="100" height="100" viewBox="0 0 100 100" fill="none" xmlns="http://www.w3.org/2000/svg">
<path fill-rule="evenodd" clip-rule="evenodd" d="M40.865 87.1085C34.8049 86.0858 22.095 80.4923 19.7386 66.2981C17.7041 54.0424 24.4019 45.6014 30.2189 38.271C32.8239 34.9884 35.2519 31.9281 36.6403 28.8482C38.8112 24.0315 39.5191 19.3138 39.5947 15.7059C39.639 13.5987 42.016 11.9882 43.7449 13.1933C47.6487 15.9142 52.4621 19.9579 55.4361 24.5456C58.3032 28.9681 60.0898 32.9138 61.0868 35.6571C61.5242 36.8602 63.168 37.1279 63.7259 35.9752C64.4915 34.3936 65.2454 32.3941 65.5758 30.282C65.8307 28.655 65.8458 27.1019 65.745 25.7577C65.6677 24.7294 67.1312 23.9301 67.8139 24.7025C71.2052 28.5402 75.72 34.654 78.0337 41.1751C81.858 51.9522 85.3344 66.5535 74.9628 77.7944C68.975 84.284 62.3251 86.6375 57.6792 87.22C59.0061 86.4566 60.4404 85.3426 61.9123 83.7469C67.2606 77.9506 66.8713 70.3301 64.8993 64.773C63.6917 61.3688 61.1428 58.1573 59.3035 56.1735C58.9534 55.7954 58.0651 56.2312 58.0567 56.7465C58.045 57.4914 57.9778 58.3567 57.8394 59.2405C57.7744 59.6567 57.6815 60.0532 57.5706 60.4262C57.2065 61.6539 55.7122 61.3884 55.3062 60.1742C54.8771 58.8916 54.2196 57.3676 53.189 55.7781C51.2769 52.8281 48.3118 50.7793 46.3247 49.6189C45.9606 49.406 45.4857 49.7426 45.4986 50.1638C45.5585 52.109 45.0841 55.5322 43.573 58.8843C42.8197 60.5561 41.429 62.1216 39.9487 63.7878C36.8817 67.2402 33.4288 71.1271 34.4532 77.2976C35.2535 82.1187 38.9893 85.3375 42.3391 87.1236L40.865 87.1085Z" fill="white"/>
</svg>

<svg xmlns="http://www.w3.org/2000/svg" width="100" height="100" viewBox="0 0 100 100" fill="none"><path fill="#fff" fill-rule="evenodd" d="M40.865 87.109c-6.06-1.023-18.77-6.617-21.126-20.81-2.035-12.257 4.663-20.698 10.48-28.028 2.605-3.283 5.033-6.343 6.421-9.423 2.171-4.816 2.88-9.534 2.955-13.142.044-2.107 2.421-3.718 4.15-2.513 3.904 2.721 8.717 6.765 11.691 11.353 2.867 4.422 4.654 8.368 5.65 11.111.438 1.203 2.082 1.47 2.64.318.766-1.581 1.52-3.58 1.85-5.693.255-1.627.27-3.18.169-4.524-.077-1.029 1.386-1.828 2.069-1.055 3.391 3.837 7.906 9.951 10.22 16.472 3.824 10.777 7.3 25.379-3.071 36.62-5.988 6.489-12.638 8.843-17.284 9.425 1.327-.763 2.761-1.877 4.233-3.473 5.349-5.796 4.96-13.417 2.987-18.974-1.207-3.404-3.756-6.616-5.596-8.6-.35-.378-1.238.058-1.246.573-.012.745-.08 1.61-.218 2.494a9 9 0 0 1-.268 1.186c-.364 1.228-1.859.962-2.265-.252a19.4 19.4 0 0 0-2.117-4.396c-1.912-2.95-4.877-4.999-6.864-6.16-.364-.212-.84.125-.826.546.06 1.945-.415 5.368-1.926 8.72-.753 1.672-2.144 3.238-3.624 4.904-3.067 3.452-6.52 7.34-5.496 13.51.8 4.82 4.536 8.04 7.886 9.826z" clip-rule="evenodd"/></svg>
